X: 11851
T: Ely Parker
R: reel
M: 4/4
K: Amajor
|:B|c2 ec efeA|c2 ec a2 =ga|f2 ec ~c2 ec|BABd cA A:|
|:a|BBBA ~A2 =ga|effe c2 BA|BBBc dddf|ecBd cA A:|

